chrome/icons/sync-badge.svg

<svg height="16" viewBox="86 86 853 853" width="16" xmlns="http://www.w3.org/2000/svg" xmlns:xlink="http://www.w3.org/1999/xlink">
  <path d="M938.5,170.5L938.5,384C938.5,395.667 934.333,405.667 926,414C917.667,422.333 907.667,426.5 896,426.5L682.5,426.5C670.833,426.5 660.833,422.333 652.5,414C644.167,405.667 640,395.667 640,384C640,372.333 644.167,362.333 652.5,354C660.833,345.667 670.833,341.5 682.5,341.5L808,341.5C792.667,314.833 774.167,290.917 752.5,269.75C730.833,248.583 707,230.667 681,216C655,201.333 627.417,190.083 598.25,182.25C569.083,174.417 539.167,170.5 508.5,170.5C480.5,170.5 452.917,174.167 425.75,181.5C398.583,188.833 372.75,199.25 348.25,212.75C323.75,226.25 301,242.583 280,261.75C259,280.917 240.833,302.167 225.5,325.5C217.833,337.167 211.333,349 206,361C200.667,373 195.333,385.333 190,398C186.333,406.667 181.167,413.583 174.5,418.75C167.833,423.917 159.667,426.5 150,426.5C138.333,426.5 128.25,422.417 119.75,414.25C111.25,406.083 107,396 107,384C107,379.667 107.833,375 109.5,370C123.833,328.333 144.333,290.083 171,255.25C197.667,220.417 228.583,190.417 263.75,165.25C298.917,140.083 337.333,120.5 379,106.5C420.667,92.5 463.5,85.5 507.5,85.5C541.5,85.5 574.833,89.25 607.5,96.75C640.167,104.25 671.333,115.25 701,129.75C730.667,144.25 758.333,162.167 784,183.5C809.667,204.833 832.833,229.167 853.5,256.5L853.5,170.5C853.5,158.833 857.667,148.833 866,140.5C874.333,132.167 884.333,128 896,128C907.667,128 917.667,132.167 926,140.5C934.333,148.833 938.5,158.833 938.5,170.5ZM914.5,640C914.5,644.333 913.667,649 912,654C897.667,695.667 877.167,733.917 850.5,768.75C823.833,803.583 792.917,833.583 757.75,858.75C722.583,883.917 684.167,903.5 642.5,917.5C600.833,931.5 558,938.5 514,938.5C480,938.5 446.917,934.833 414.75,927.5C382.583,920.167 351.833,909.417 322.5,895.25C293.167,881.083 265.667,863.5 240,842.5C214.333,821.5 191.167,797.5 170.5,770.5L170.5,853.5C170.5,865.167 166.333,875.167 158,883.5C149.667,891.833 139.667,896 128,896C116.333,896 106.333,891.833 98,883.5C89.6667,875.167 85.5,865.167 85.5,853.5L85.5,640C85.5,628.333 89.6667,618.333 98,610C106.333,601.667 116.333,597.5 128,597.5L341.5,597.5C353.167,597.5 363.167,601.667 371.5,610C379.833,618.333 384,628.333 384,640C384,651.667 379.833,661.667 371.5,670C363.167,678.333 353.167,682.5 341.5,682.5L214,682.5C229.333,709.167 247.833,733.083 269.5,754.25C291.167,775.417 314.917,793.333 340.75,808C366.583,822.667 394.083,833.917 423.25,841.75C452.417,849.583 482.333,853.5 513,853.5C541,853.5 568.667,849.833 596,842.5C623.333,835.167 649.25,824.75 673.75,811.25C698.25,797.75 720.917,781.417 741.75,762.25C762.583,743.083 780.667,721.667 796,698C803.667,686.333 810.083,674.5 815.25,662.5C820.417,650.5 825.833,638.167 831.5,625.5C835.167,616.833 840.417,609.917 847.25,604.75C854.083,599.583 862.333,597 872,597C878,597 883.583,598.167 888.75,600.5C893.917,602.833 898.417,605.917 902.25,609.75C906.083,613.583 909.083,618.083 911.25,623.25C913.417,628.417 914.5,634 914.5,640Z" fill="context-fill" fill-opacity="context-fill-opacity">
  </path>
</svg>

<svg xmlns="http://www.w3.org/2000/svg" width="16" height="16" viewBox="86 86 853 853"><path fill="context-fill" fill-opacity="context-fill-opacity" d="M938.5 170.5V384q0 17.5-12.5 30t-30 12.5H682.5q-17.5 0-30-12.5T640 384t12.5-30 30-12.5H808q-23-40-55.5-71.75T681 216t-82.75-33.75-89.75-11.75q-42 0-82.75 11t-77.5 31.25-68.25 49-54.5 63.75Q214 343 206 361t-16 37q-5.5 13-15.5 20.75T150 426.5q-17.5 0-30.25-12.25T107 384q0-6.5 2.5-14Q131 307.5 171 255.25t92.75-90T379 106.5t128.5-21q51 0 100 11.25t93.5 33 83 53.75 69.5 73v-86q0-17.5 12.5-30t30-12.5 30 12.5 12.5 30m-24 469.5q0 6.5-2.5 14-21.5 62.5-61.5 114.75t-92.75 90T642.5 917.5t-128.5 21q-51 0-99.25-11t-92.25-32.25T240 842.5t-69.5-72v83q0 17.5-12.5 30T128 896t-30-12.5-12.5-30V640q0-17.5 12.5-30t30-12.5h213.5q17.5 0 30 12.5t12.5 30-12.5 30-30 12.5H214q23 40 55.5 71.75T340.75 808t82.5 33.75T513 853.5q42 0 83-11t77.75-31.25 68-49T796 698q11.5-17.5 19.25-35.5t16.25-37q5.5-13 15.75-20.75T872 597q9 0 16.75 3.5t13.5 9.25 9 13.5T914.5 640"/></svg>
